img/svg/clean.svg

<svg width="31" height="57" viewBox="0 0 31 57" fill="none" xmlns="http://www.w3.org/2000/svg">
<path d="M1.08956 49.7613C0.579559 52.3913 2.29956 54.9413 4.92956 55.4413C7.55956 55.9513 10.1096 54.2313 10.6096 51.6013L14.6396 32.1813L5.45956 29.8613L1.08956 49.7613Z" stroke="white" stroke-miterlimit="10"/>
<path d="M26.6697 15.5413L3.09967 10.7613C2.25967 10.5913 1.71967 9.77127 1.88967 8.94127L3.24967 2.24127C3.41967 1.40127 4.23967 0.861271 5.06967 1.03127L28.6397 5.81127C29.4797 5.98127 30.0197 6.80127 29.8497 7.63127L28.4897 14.3313C28.3197 15.1713 27.5097 15.7113 26.6697 15.5413Z" stroke="white" stroke-miterlimit="10"/>
<path d="M21.6095 14.4111L21.3295 15.7911C21.1595 16.6311 20.3395 17.1711 19.5095 17.0011L8.96954 14.8611C8.12954 14.6911 7.58954 13.8711 7.75954 13.0411L8.03954 11.6611" stroke="white" stroke-miterlimit="10"/>
<path d="M10.9493 15.5212L7.56934 30.1112" stroke="white" stroke-miterlimit="10"/>
<path d="M16.8196 16.4612L12.8496 31.8012" stroke="white" stroke-miterlimit="10"/>
</svg>

<svg width="31" height="57" fill="none" xmlns="http://www.w3.org/2000/svg"><path d="M1.09 49.761a4.841 4.841 0 003.84 5.68c2.63.51 5.18-1.21 5.68-3.84l4.03-19.42-9.18-2.32-4.37 19.9zm25.58-34.22L3.1 10.761c-.84-.17-1.38-.99-1.21-1.82l1.36-6.7c.17-.84.99-1.38 1.82-1.21l23.57 4.78c.84.17 1.38.99 1.21 1.82l-1.36 6.7a1.54 1.54 0 01-1.82 1.21z" stroke="#fff" stroke-miterlimit="10"/><path d="M21.61 14.411l-.28 1.38c-.17.84-.99 1.38-1.82 1.21l-10.54-2.14c-.84-.17-1.38-.99-1.21-1.82l.28-1.38m2.91 3.86l-3.38 14.59m9.25-13.65l-3.97 15.34" stroke="#fff" stroke-miterlimit="10"/></svg>
